assets/images/Waves.svg

<svg width="249" height="20" viewBox="0 0 249 20" fill="none" xmlns="http://www.w3.org/2000/svg">
<path d="M247.817 8.1704L247.833 8.14544L249 8.92746L248.974 8.96593C246.362 12.8905 243.51 17.1763 238.524 19.1683L238.462 19.1931C235.496 20.3476 232.343 20.211 229.637 19.0442C226.919 17.8773 224.647 15.6678 223.456 12.7011L223.443 12.639C222.835 11.0874 222.661 9.47364 222.872 7.94683L222.264 8.8654L222.227 8.90264L222.215 8.92746C219.608 12.8624 216.753 17.1698 211.751 19.1683L211.689 19.1931C210.522 19.64 209.343 19.9007 208.164 19.9752H208.027H208.015L207.879 19.9876H207.742H207.73L207.593 20H207.457H207.32H207.308L207.171 19.9876H207.035H206.898L206.761 19.9752C205.409 19.8883 204.08 19.578 202.852 19.0442C200.146 17.8773 197.862 15.6678 196.683 12.7011L196.658 12.639C196.05 11.0874 195.888 9.47364 196.087 7.94683L195.442 8.92746L195.416 8.96588C192.804 12.8904 189.952 17.1763 184.966 19.1683L184.904 19.1931C181.937 20.3476 178.785 20.211 176.079 19.0442C173.36 17.8773 171.089 15.6678 169.91 12.7011L169.885 12.639C169.215 10.9384 169.078 9.16331 169.389 7.48754C169.066 7.95924 168.755 8.43094 168.433 8.92746L168.407 8.96583C165.795 12.8904 162.943 17.1763 157.957 19.1683L157.895 19.1931C154.928 20.3476 151.776 20.211 149.07 19.0442C146.352 17.8773 144.08 15.6678 142.889 12.7011L142.876 12.639C142.268 11.0874 142.094 9.47364 142.305 7.94683L141.647 8.92746C139.041 12.8624 136.186 17.1698 131.172 19.1683L131.122 19.1931C128.155 20.3476 125.003 20.211 122.297 19.0442C119.579 17.8773 117.307 15.6678 116.116 12.7011L116.091 12.639C115.507 11.1494 115.334 9.58536 115.507 8.1082L114.961 8.92746C112.355 12.8624 109.5 17.1698 104.485 19.1683L104.423 19.1931C101.469 20.3476 98.3166 20.211 95.5983 19.0442C92.8925 17.8773 90.621 15.6678 89.4295 12.7011L89.4047 12.639C88.7965 11.0874 88.6351 9.47364 88.8337 7.94683L88.1883 8.92746L88.1456 8.99162C85.5382 12.9093 82.6873 17.193 77.7 19.1683L77.6752 19.1807C74.7087 20.3476 71.5436 20.2234 68.8253 19.0442C66.1071 17.8773 63.8356 15.6554 62.6441 12.6762V12.6638C61.9614 10.9508 61.8249 9.17573 62.1352 7.48754C61.8125 7.95924 61.5022 8.43094 61.1794 8.92746L61.1539 8.96587C58.5419 12.8904 55.6894 17.1763 50.7036 19.1683L50.6415 19.1931C47.675 20.3476 44.5224 20.211 41.8165 19.0442C39.0982 17.8773 36.8268 15.6678 35.6353 12.7011L35.6228 12.639C35.0147 11.0874 34.8409 9.47364 35.0519 7.94683L34.4437 8.8654L34.4189 8.89023L34.394 8.92746C31.7875 12.8624 28.9327 17.1698 23.9182 19.1683L23.8685 19.1931C22.6149 19.6773 21.3241 19.9379 20.058 19.9876H19.9215H19.9091L19.7725 20H19.636H19.6236H19.4995H19.4871L19.3505 19.9876H19.214C17.7618 19.9379 16.3468 19.6152 15.0311 19.0442C12.3128 17.8773 10.0414 15.6678 8.86227 12.7011L8.83745 12.639C8.22925 11.0874 8.05548 9.47364 8.26649 7.94683L7.60864 8.92746C5.54823 12.0432 3.32645 15.3947 0 17.6415L0 15.9161C2.66874 13.8375 4.59416 10.9424 6.4041 8.22093L6.45431 8.14544C9.18499 4.01186 11.6674 0.287908 16.0985 0.00240585C16.2227 -0.0100073 16.3468 0.0272322 16.4585 0.0768848H16.4709H16.5206L16.5702 0.0768848L16.6199 0.0768848C17.737 0.0892979 18.8168 0.325148 19.7725 0.722369C21.6716 1.5044 23.1486 2.9195 23.6575 4.4339C24.1664 5.94831 23.9678 7.53719 23.3224 8.80333C22.9625 9.53571 22.4412 10.1564 21.8205 10.6032C21.2124 11.0377 20.5049 11.3108 19.7601 11.3356H19.7229H19.6857H19.6484H19.6112H19.5739H19.5615H19.5243C18.5313 11.3108 17.4887 10.8763 16.5081 9.88328C16.2351 9.61019 16.2351 9.16331 16.5081 8.89023C16.6447 8.75368 16.8185 8.69162 16.9922 8.69162H17.0046H17.017C17.1908 8.69162 17.3646 8.75368 17.5011 8.89023C18.221 9.61019 18.9161 9.92052 19.5615 9.94534H19.5864H19.6112H19.6236H19.636H19.6484H19.6608H19.6732H19.6857H19.7105C20.1697 9.92052 20.6042 9.74673 20.9889 9.47364C21.4358 9.16331 21.7957 8.71644 22.0688 8.18268C22.5529 7.22686 22.7142 6.01037 22.317 4.88078C21.9323 3.73877 20.7655 2.64641 19.2264 2.01334C18.4817 1.70301 17.6501 1.51681 16.7936 1.47957H16.7192H16.6447H16.5702H16.4957H16.4213H16.3468C15.7758 1.49198 15.1925 1.59129 14.6091 1.76507C12.5735 2.58434 11.0592 4.16081 10.24 6.0352C9.43323 7.90959 9.33393 10.0819 10.1407 12.1301L10.1531 12.1673C11.1958 14.7741 13.1941 16.7229 15.5897 17.7532C16.744 18.2622 17.9976 18.5477 19.2636 18.5849L19.3878 18.5973H19.5119H19.636H19.7601H19.8843C21.0386 18.5601 22.2053 18.3366 23.3472 17.8898L23.3845 17.8774C27.9894 16.0402 30.7201 11.9314 33.2149 8.15785H33.2273V8.14544C35.9704 4.01186 38.4528 0.287908 42.8715 0.00240585C43.0081 -0.0100073 43.1322 0.0272322 43.2439 0.0768848C44.4106 0.0644716 45.5402 0.312735 46.5455 0.722369C48.4446 1.5044 49.9216 2.9195 50.4305 4.4339C50.9394 5.94831 50.7533 7.53719 50.1078 8.80333C49.7355 9.53571 49.2141 10.1564 48.5935 10.6032C47.9481 11.0749 47.2034 11.3356 46.3966 11.3356C45.3788 11.3356 44.3114 10.9012 43.2936 9.88328C43.0205 9.61019 43.0205 9.16331 43.2936 8.89023C43.5666 8.61714 44.0135 8.61714 44.2865 8.89023C45.0188 9.6226 45.7387 9.93293 46.3966 9.94534C46.8931 9.94534 47.3647 9.77156 47.7743 9.47364C48.2088 9.16331 48.5811 8.71644 48.8542 8.18268C49.3383 7.22686 49.4872 6.01037 49.1024 4.88078C48.7177 3.73877 47.5509 2.64641 46.0118 2.01334C44.6465 1.45475 43.0081 1.26855 41.3821 1.76507C39.3465 2.58434 37.8322 4.16081 37.0254 6.0352C36.2186 7.90959 36.1193 10.0819 36.9137 12.1301L36.9385 12.1673C37.9687 14.7741 39.9795 16.7229 42.3751 17.7532C44.7582 18.7835 47.5261 18.9076 50.1326 17.8898L50.1699 17.8774C54.7646 16.0443 57.4934 11.9372 59.9961 8.17045L60.0127 8.14544L60.0151 8.14184C62.7572 4.0097 65.2271 0.287826 69.6569 0.00240585C69.7935 -0.0100073 69.9176 0.0272322 70.0293 0.089298C71.2829 0.0396453 72.4869 0.287908 73.5544 0.722369C75.4534 1.5044 76.9305 2.9195 77.4394 4.4339C77.9607 5.94831 77.7621 7.53719 77.1166 8.80333C76.7443 9.53571 76.223 10.1564 75.6024 10.6032C74.9569 11.0749 74.2122 11.3356 73.4054 11.3356C72.3876 11.3356 71.3202 10.9012 70.3024 9.88328C70.0293 9.61019 70.0293 9.16331 70.3024 8.89023C70.5754 8.61714 71.0223 8.61714 71.2953 8.89023C72.0277 9.6226 72.7476 9.93293 73.4054 9.94534C73.9019 9.94534 74.3736 9.77156 74.7832 9.47364C75.23 9.16331 75.59 8.71644 75.863 8.18268C76.3471 7.22686 76.5084 6.01037 76.1113 4.88078C75.7265 3.73877 74.5597 2.64641 73.0206 2.01334C71.6553 1.45475 70.0169 1.26855 68.3909 1.76507C66.3553 2.58434 64.841 4.16081 64.0342 6.0352C63.215 7.90959 63.1282 10.1067 63.9474 12.1673C64.9776 14.7741 66.9883 16.7229 69.3839 17.7532C71.7794 18.7959 74.5597 18.9076 77.1787 17.8774C81.7836 16.0402 84.5267 11.919 87.0215 8.14544L87.0239 8.14181C89.7661 4.00968 92.2359 0.287825 96.6658 0.00240585C96.8023 -0.0100073 96.9264 0.0272322 97.0381 0.0768848C98.2049 0.0644716 99.3344 0.312735 100.34 0.722369C102.226 1.5044 103.703 2.9195 104.212 4.4339C104.734 5.94831 104.535 7.53719 103.89 8.80333C103.517 9.53571 102.996 10.1564 102.375 10.6032C101.742 11.0749 100.985 11.3356 100.178 11.3356C99.173 11.3356 98.0932 10.9012 97.0754 9.88328C96.8023 9.61019 96.8023 9.16331 97.0754 8.89023C97.3484 8.61714 97.7953 8.61714 98.0683 8.89023C98.8007 9.6226 99.533 9.93293 100.191 9.94534C100.687 9.94534 101.159 9.77156 101.569 9.47364C102.003 9.16331 102.375 8.71644 102.648 8.18268C103.132 7.22686 103.281 6.01037 102.897 4.88078C102.512 3.73877 101.333 2.64641 99.806 2.01334C98.4283 1.45475 96.7899 1.26855 95.1763 1.76507C93.1407 2.58434 91.614 4.16081 90.8072 6.0352C90.0004 7.90959 89.9012 10.0819 90.7079 12.1301L90.7203 12.1673C91.763 14.7741 93.7613 16.7229 96.1569 17.7532C98.54 18.7835 101.32 18.9076 103.914 17.8898L103.964 17.8774C108.569 16.0402 111.3 11.919 113.795 8.14544L113.797 8.14185C116.539 4.0097 119.009 0.287826 123.439 0.00240585C123.575 -0.0100073 123.699 0.0272322 123.811 0.0768848C124.953 0.0768848 126.045 0.325148 127.026 0.722369C128.925 1.5044 130.402 2.9195 130.911 4.4339C131.42 5.94831 131.221 7.53719 130.576 8.80333C130.216 9.53571 129.694 10.1564 129.074 10.6032C128.428 11.0749 127.671 11.3356 126.865 11.3356C125.859 11.3356 124.779 10.9012 123.761 9.88328C123.488 9.61019 123.488 9.16331 123.761 8.89023C124.035 8.61714 124.481 8.61714 124.754 8.89023C125.487 9.6226 126.219 9.93293 126.877 9.94534C127.373 9.94534 127.845 9.77156 128.255 9.47364C128.689 9.16331 129.061 8.71644 129.335 8.18268C129.819 7.22686 129.968 6.01037 129.583 4.88078C129.198 3.73877 128.019 2.64641 126.492 2.01334C125.127 1.45475 123.476 1.26855 121.862 1.76507C119.827 2.58434 118.313 4.16081 117.493 6.0352C116.687 7.90959 116.587 10.0819 117.394 12.1301L117.406 12.1673C118.449 14.7741 120.447 16.7229 122.843 17.7532C125.226 18.7835 128.006 18.9076 130.613 17.8898L130.65 17.8774C135.255 16.0402 137.986 11.919 140.481 8.14544C143.224 4.01186 145.706 0.287908 150.125 0.00240585C150.261 -0.0100073 150.386 0.0272322 150.497 0.0768848C151.664 0.0644716 152.793 0.312735 153.799 0.722369C155.698 1.5044 157.175 2.9195 157.684 4.4339C158.193 5.94831 157.994 7.53719 157.361 8.80333C156.989 9.53571 156.467 10.1564 155.847 10.6032C155.201 11.0749 154.457 11.3356 153.65 11.3356C152.632 11.3356 151.565 10.9012 150.547 9.88328C150.274 9.61019 150.274 9.16331 150.547 8.89023C150.82 8.61714 151.254 8.61714 151.54 8.89023C152.272 9.6226 152.992 9.93293 153.65 9.94534C154.146 9.94534 154.618 9.77156 155.028 9.47364C155.462 9.16331 155.834 8.71644 156.108 8.18268C156.592 7.22686 156.741 6.01037 156.356 4.88078C155.971 3.73877 154.804 2.64641 153.265 2.01334C151.9 1.45475 150.261 1.26855 148.635 1.76507C146.6 2.58434 145.086 4.16081 144.279 6.0352C143.472 7.90959 143.373 10.0819 144.167 12.1301L144.192 12.1673C145.222 14.7741 147.233 16.7229 149.628 17.7532C152.012 18.7835 154.779 18.9076 157.386 17.8898L157.423 17.8774C162.018 16.0443 164.747 11.9372 167.249 8.17045L167.266 8.14544L167.268 8.14188C170.011 4.00972 172.48 0.287826 176.91 0.00240585C177.047 -0.0100073 177.171 0.0272322 177.283 0.089298C178.536 0.0396453 179.74 0.287908 180.808 0.722369C182.707 1.5044 184.184 2.9195 184.693 4.4339C185.214 5.94831 185.015 7.53719 184.37 8.80333C183.998 9.53571 183.476 10.1564 182.856 10.6032C182.21 11.0749 181.466 11.3356 180.659 11.3356C179.641 11.3356 178.574 10.9012 177.556 9.88328C177.283 9.61019 177.283 9.16331 177.556 8.89023C177.829 8.61714 178.276 8.61714 178.549 8.89023C179.281 9.6226 180.001 9.93293 180.659 9.94534C181.155 9.94534 181.627 9.77156 182.036 9.47364C182.483 9.16331 182.843 8.71644 183.116 8.18268C183.6 7.22686 183.762 6.01037 183.365 4.88078C182.98 3.73877 181.813 2.64641 180.274 2.01334C178.909 1.45475 177.27 1.26855 175.644 1.76507C173.609 2.58434 172.094 4.16081 171.288 6.0352C170.481 7.90959 170.381 10.0819 171.176 12.1301L171.201 12.1673C172.231 14.7741 174.242 16.7229 176.637 17.7532C179.02 18.7835 181.788 18.9076 184.395 17.8898L184.432 17.8774C189.037 16.0402 191.78 11.919 194.275 8.14544L194.277 8.14183C197.019 4.00969 199.489 0.287825 203.919 0.00240585C204.056 -0.0100073 204.18 0.0272322 204.291 0.0768848L204.341 0.0768848H204.391L204.453 0.0768848H204.465L204.502 0.0768848C205.595 0.101711 206.65 0.337561 207.593 0.722369C209.492 1.5044 210.969 2.9195 211.478 4.4339C211.987 5.94831 211.788 7.53719 211.143 8.80333C210.783 9.53571 210.262 10.1564 209.641 10.6032C209.058 11.0253 208.375 11.286 207.655 11.3356H207.63H207.618H207.593H207.581H207.556H207.543H207.519H207.506H207.469H207.432H207.394H207.382H207.345H207.332H207.295H207.246C206.29 11.2736 205.284 10.8391 204.329 9.88328C204.056 9.61019 204.056 9.16331 204.329 8.89023C204.453 8.76609 204.627 8.69162 204.788 8.69162H204.8H204.813H204.825H204.838H204.85H204.862H204.875C205.036 8.70403 205.198 8.76609 205.322 8.89023C206.029 9.59777 206.724 9.9081 207.345 9.93293L207.382 9.94534H207.407H207.444H207.457H207.469H207.481H207.494H207.506H207.519H207.531L207.556 9.93293C208.003 9.92052 208.437 9.74673 208.822 9.47364C209.256 9.16331 209.629 8.71644 209.902 8.18268C210.386 7.22686 210.535 6.01037 210.15 4.88078C209.765 3.73877 208.586 2.64641 207.059 2.01334C206.352 1.72783 205.57 1.54164 204.763 1.49198L204.689 1.47957H204.614H204.54H204.465H204.391H204.316H204.242H204.167H204.093L204.018 1.49198C203.497 1.51681 202.963 1.6037 202.43 1.76507C200.394 2.58434 198.88 4.16081 198.073 6.0352C197.254 7.90959 197.167 10.0819 197.961 12.1301L197.974 12.1673C199.016 14.7741 201.015 16.7229 203.41 17.7532C204.49 18.2249 205.657 18.5104 206.848 18.5725L206.96 18.5849H206.972H207.084H207.097L207.208 18.5973H207.332H207.457H207.581H207.705L207.829 18.5849H207.953C209.033 18.5352 210.113 18.2994 211.168 17.8898L211.217 17.8774C215.81 16.0402 218.553 11.9314 221.048 8.15785V8.14544C223.791 4.01186 226.273 0.287908 230.692 0.00240585C230.829 -0.0100073 230.953 0.0272322 231.064 0.0768848C232.244 0.0644716 233.361 0.312735 234.366 0.722369C236.265 1.5044 237.742 2.9195 238.251 4.4339C238.772 5.94831 238.574 7.53719 237.928 8.80333C237.556 9.53571 237.035 10.1564 236.414 10.6032C235.769 11.0749 235.024 11.3356 234.217 11.3356C233.199 11.3356 232.132 10.9012 231.114 9.88328C230.841 9.61019 230.841 9.16331 231.114 8.89023C231.387 8.61714 231.834 8.61714 232.107 8.89023C232.839 9.6226 233.559 9.93293 234.217 9.94534C234.714 9.94534 235.185 9.77156 235.595 9.47364C236.029 9.16331 236.402 8.71644 236.675 8.18268C237.159 7.22686 237.308 6.01037 236.923 4.88078C236.538 3.73877 235.371 2.64641 233.832 2.01334C232.467 1.45475 230.829 1.26855 229.203 1.76507C227.167 2.58434 225.653 4.16081 224.846 6.0352C224.039 7.90959 223.94 10.0819 224.734 12.1301L224.759 12.1673C225.789 14.7741 227.8 16.7229 230.196 17.7532C232.579 18.7835 235.347 18.9076 237.953 17.8898L237.99 17.8774C242.585 16.0443 245.314 11.9372 247.817 8.1704Z" fill="#2F70B6"/>
</svg>

<svg xmlns="http://www.w3.org/2000/svg" width="249" height="20" fill="none" viewBox="0 0 249 20"><path fill="#2F70B6" d="M247.817 8.17l.016-.025 1.167.782-.026.039c-2.612 3.925-5.464 8.21-10.45 10.202l-.062.025a11.6 11.6 0 0 1-8.825-.149 11.564 11.564 0 0 1-6.181-6.343l-.013-.062a9.343 9.343 0 0 1-.571-4.692l-.608.918-.037.038-.012.024c-2.607 3.935-5.462 8.243-10.464 10.241l-.062.025a11.935 11.935 0 0 1-3.525.782H208.015l-.136.013H207.73l-.137.012H207.308l-.137-.012h-.273l-.137-.013a11.7 11.7 0 0 1-3.909-.93 11.544 11.544 0 0 1-6.169-6.344l-.025-.062a9.478 9.478 0 0 1-.571-4.692l-.645.98-.026.039c-2.612 3.924-5.464 8.21-10.45 10.202l-.062.025a11.6 11.6 0 0 1-8.825-.149 11.503 11.503 0 0 1-6.169-6.343l-.025-.062a9.345 9.345 0 0 1-.496-5.151c-.323.471-.634.943-.956 1.44l-.026.038c-2.612 3.924-5.464 8.21-10.45 10.202l-.062.025a11.6 11.6 0 0 1-8.825-.149 11.564 11.564 0 0 1-6.181-6.343l-.013-.062a9.343 9.343 0 0 1-.571-4.692l-.658.98c-2.606 3.935-5.461 8.243-10.475 10.241l-.05.025a11.6 11.6 0 0 1-8.825-.149 11.564 11.564 0 0 1-6.181-6.343l-.025-.062a9.423 9.423 0 0 1-.584-4.53l-.546.818c-2.606 3.935-5.461 8.243-10.476 10.241l-.062.025a11.585 11.585 0 0 1-14.993-6.492l-.025-.062a9.48 9.48 0 0 1-.571-4.692l-.646.98-.042.065c-2.608 3.917-5.459 8.201-10.446 10.176l-.025.013a11.55 11.55 0 0 1-8.85-.137 11.573 11.573 0 0 1-6.18-6.368v-.012a9.33 9.33 0 0 1-.51-5.176c-.322.471-.633.943-.956 1.44l-.025.038c-2.612 3.924-5.465 8.21-10.45 10.202l-.063.025a11.6 11.6 0 0 1-8.825-.149 11.565 11.565 0 0 1-6.18-6.343l-.013-.062a9.342 9.342 0 0 1-.571-4.692l-.608.918-.025.025-.025.037c-2.606 3.935-5.461 8.243-10.476 10.241l-.05.025a11.88 11.88 0 0 1-3.81.795H19.909l-.136.012H19.486l-.136-.012h-.137a11.481 11.481 0 0 1-4.183-.944 11.505 11.505 0 0 1-6.169-6.343l-.025-.062a9.34 9.34 0 0 1-.57-4.692l-.658.98C5.549 12.043 3.326 15.395 0 17.642v-1.726c2.669-2.079 4.594-4.974 6.404-7.695l.05-.076C9.185 4.012 11.667.288 16.1.002a.723.723 0 0 1 .36.075h.161a8.506 8.506 0 0 1 3.152.645c1.9.782 3.377 2.198 3.886 3.712a5.687 5.687 0 0 1-.336 4.37 4.85 4.85 0 0 1-1.502 1.8c-.608.434-1.315.707-2.06.732H19.524c-.993-.025-2.035-.46-3.016-1.453a.704.704 0 0 1 0-.993.676.676 0 0 1 .484-.198h.025c.174 0 .348.062.484.198.72.72 1.415 1.03 2.06 1.055h.149a2.44 2.44 0 0 0 1.279-.471c.447-.31.807-.758 1.08-1.291.484-.956.645-2.173.248-3.302-.385-1.142-1.552-2.235-3.09-2.868a7.166 7.166 0 0 0-2.433-.533h-.447a6.602 6.602 0 0 0-1.738.285c-2.036.82-3.55 2.396-4.369 4.27a7.964 7.964 0 0 0-.1 6.095l.013.037a10.174 10.174 0 0 0 5.437 5.586 9.847 9.847 0 0 0 3.674.832l.124.012h.496a10.386 10.386 0 0 0 3.463-.707l.037-.013c4.605-1.837 7.336-5.946 9.83-9.72h.013v-.012C35.97 4.012 38.453.288 42.872.002a.743.743 0 0 1 .372.075 8.555 8.555 0 0 1 3.301.645c1.9.782 3.377 2.198 3.886 3.712a5.686 5.686 0 0 1-.323 4.37 5.001 5.001 0 0 1-1.514 1.8 3.68 3.68 0 0 1-2.197.732c-1.018 0-2.086-.435-3.103-1.453a.704.704 0 0 1 0-.993.704.704 0 0 1 .992 0c.733.733 1.453 1.043 2.11 1.055.497 0 .969-.173 1.378-.471.435-.31.807-.758 1.08-1.291.484-.956.633-2.173.248-3.302-.384-1.142-1.551-2.235-3.09-2.868-1.365-.558-3.004-.744-4.63-.248a7.988 7.988 0 0 0-4.357 4.27 8.02 8.02 0 0 0-.111 6.095l.024.037a10.133 10.133 0 0 0 5.437 5.586 10.162 10.162 0 0 0 7.758.137l.037-.013c4.595-1.833 7.323-5.94 9.826-9.707l.017-.025.002-.003C62.757 4.01 65.227.288 69.657.002a.638.638 0 0 1 .372.087 8.486 8.486 0 0 1 3.525.633c1.9.782 3.376 2.198 3.885 3.712.522 1.514.323 3.103-.322 4.37a5.001 5.001 0 0 1-1.515 1.8 3.68 3.68 0 0 1-2.197.732c-1.017 0-2.085-.435-3.103-1.453a.704.704 0 0 1 0-.993.704.704 0 0 1 .993 0c.733.733 1.453 1.043 2.11 1.055.497 0 .969-.173 1.378-.471.447-.31.807-.758 1.08-1.291.484-.956.645-2.173.248-3.302-.385-1.142-1.551-2.235-3.09-2.868-1.366-.558-3.004-.744-4.63-.248a7.988 7.988 0 0 0-4.357 4.27 7.945 7.945 0 0 0-.087 6.132 10.133 10.133 0 0 0 5.437 5.586 10.144 10.144 0 0 0 7.795.124c4.605-1.837 7.348-5.958 9.843-9.732l.002-.003C89.766 4.01 92.236.288 96.666.002a.743.743 0 0 1 .372.075 8.557 8.557 0 0 1 3.302.645c1.886.782 3.363 2.198 3.872 3.712.522 1.514.323 3.103-.322 4.37a5.006 5.006 0 0 1-1.515 1.8 3.652 3.652 0 0 1-2.197.732c-1.005 0-2.085-.435-3.103-1.453a.704.704 0 0 1 0-.993.704.704 0 0 1 .993 0c.733.733 1.465 1.043 2.123 1.055.496 0 .968-.173 1.378-.471.434-.31.806-.758 1.079-1.291.484-.956.633-2.173.249-3.302-.385-1.142-1.564-2.235-3.091-2.868-1.378-.558-3.016-.744-4.63-.248a8.011 8.011 0 0 0-4.369 4.27 7.965 7.965 0 0 0-.1 6.095l.013.037a10.174 10.174 0 0 0 5.437 5.586 10.162 10.162 0 0 0 7.757.137l.05-.013c4.605-1.837 7.336-5.958 9.831-9.732l.002-.003c2.742-4.132 5.212-7.854 9.642-8.14a.744.744 0 0 1 .372.075c1.142 0 2.234.248 3.215.645 1.899.782 3.376 2.198 3.885 3.712a5.689 5.689 0 0 1-.335 4.37 4.858 4.858 0 0 1-1.502 1.8 3.718 3.718 0 0 1-2.209.732c-1.006 0-2.086-.435-3.104-1.453a.704.704 0 0 1 0-.993.704.704 0 0 1 .993 0c.733.733 1.465 1.043 2.123 1.055.496 0 .968-.173 1.378-.471.434-.31.806-.758 1.08-1.291.484-.956.633-2.173.248-3.302-.385-1.142-1.564-2.235-3.091-2.868-1.365-.558-3.016-.744-4.63-.248-2.035.82-3.549 2.396-4.369 4.27a7.967 7.967 0 0 0-.099 6.095l.012.037a10.174 10.174 0 0 0 5.437 5.586 10.193 10.193 0 0 0 7.77.137l.037-.013c4.605-1.837 7.336-5.958 9.831-9.732 2.743-4.133 5.225-7.857 9.644-8.143a.741.741 0 0 1 .372.075 8.558 8.558 0 0 1 3.302.645c1.899.782 3.376 2.198 3.885 3.712.509 1.514.31 3.103-.323 4.37a5.004 5.004 0 0 1-1.514 1.8 3.68 3.68 0 0 1-2.197.732c-1.018 0-2.085-.435-3.103-1.453a.704.704 0 0 1 0-.993.704.704 0 0 1 .993 0c.732.733 1.452 1.043 2.11 1.055.496 0 .968-.173 1.378-.471.434-.31.806-.758 1.08-1.291.484-.956.633-2.173.248-3.302-.385-1.142-1.552-2.235-3.091-2.868-1.365-.558-3.004-.744-4.63-.248a7.99 7.99 0 0 0-4.356 4.27 8.021 8.021 0 0 0-.112 6.095l.025.037a10.134 10.134 0 0 0 5.436 5.586 10.163 10.163 0 0 0 7.758.137l.037-.013c4.595-1.833 7.324-5.94 9.826-9.707l.017-.025.002-.003c2.743-4.132 5.212-7.854 9.642-8.14a.64.64 0 0 1 .373.087 8.489 8.489 0 0 1 3.525.633c1.899.782 3.376 2.198 3.885 3.712.521 1.514.322 3.103-.323 4.37a5.004 5.004 0 0 1-1.514 1.8 3.68 3.68 0 0 1-2.197.732c-1.018 0-2.085-.435-3.103-1.453a.704.704 0 0 1 0-.993.704.704 0 0 1 .993 0c.732.733 1.452 1.043 2.11 1.055.496 0 .968-.173 1.377-.471.447-.31.807-.758 1.08-1.291.484-.956.646-2.173.249-3.302-.385-1.142-1.552-2.235-3.091-2.868-1.365-.558-3.004-.744-4.63-.248a7.986 7.986 0 0 0-4.356 4.27 8.017 8.017 0 0 0-.112 6.095l.025.037a10.134 10.134 0 0 0 5.436 5.586 10.163 10.163 0 0 0 7.758.137l.037-.013c4.605-1.837 7.348-5.958 9.843-9.732l.002-.003c2.742-4.132 5.212-7.854 9.642-8.14a.74.74 0 0 1 .372.075H204.502a8.746 8.746 0 0 1 3.091.645c1.899.782 3.376 2.198 3.885 3.712a5.689 5.689 0 0 1-.335 4.37 4.849 4.849 0 0 1-1.502 1.8 3.837 3.837 0 0 1-1.986.732h-.409c-.956-.062-1.962-.497-2.917-1.453a.704.704 0 0 1 0-.993.672.672 0 0 1 .459-.198h.087a.703.703 0 0 1 .447.198c.707.708 1.402 1.018 2.023 1.043l.037.012h.149l.025-.012c.447-.012.881-.186 1.266-.46.434-.31.807-.757 1.08-1.29.484-.956.633-2.173.248-3.302-.385-1.142-1.564-2.235-3.091-2.868a7.374 7.374 0 0 0-2.296-.521l-.074-.012h-.596l-.075.012a6.553 6.553 0 0 0-1.588.273 7.988 7.988 0 0 0-4.357 4.27 7.966 7.966 0 0 0-.112 6.095l.013.037a10.172 10.172 0 0 0 5.436 5.586 9.895 9.895 0 0 0 3.438.82l.112.012h.137l.111.012h.497l.124-.012h.124c1.08-.05 2.16-.286 3.215-.695l.049-.013c4.593-1.837 7.336-5.946 9.831-9.72v-.012c2.743-4.133 5.225-7.857 9.644-8.143a.74.74 0 0 1 .372.075 8.507 8.507 0 0 1 3.302.645c1.899.782 3.376 2.198 3.885 3.712.521 1.514.323 3.103-.323 4.37a4.994 4.994 0 0 1-1.514 1.8 3.678 3.678 0 0 1-2.197.732c-1.018 0-2.085-.435-3.103-1.453a.704.704 0 0 1 0-.993.704.704 0 0 1 .993 0c.732.733 1.452 1.043 2.11 1.055.497 0 .968-.173 1.378-.471.434-.31.807-.758 1.08-1.291.484-.956.633-2.173.248-3.302-.385-1.142-1.552-2.235-3.091-2.868-1.365-.558-3.003-.744-4.629-.248a7.988 7.988 0 0 0-4.357 4.27 8.021 8.021 0 0 0-.112 6.095l.025.037a10.132 10.132 0 0 0 5.437 5.586 10.16 10.16 0 0 0 7.757.137l.037-.013c4.595-1.833 7.324-5.94 9.827-9.707z"/></svg>
